collections/assets/m/maker/logo-full.svg

<?xml version="1.0" encoding="UTF-8"?>
<svg width="151px" height="39px" viewBox="0 0 151 39" version="1.1" xmlns="http://www.w3.org/2000/svg" xmlns:xlink="http://www.w3.org/1999/xlink">
    <!-- Generator: Sketch 44 (41411) - http://www.bohemiancoding.com/sketch -->
    <title>Artboard</title>
    <desc>Created with Sketch.</desc>
    <defs>
        <polygon id="path-1" points="0.0005 17 82.597 17 82.597 0.828668275 0.0005 0.828668275"></polygon>
        <polygon id="path-3" points="0.0005 17 82.597 17 82.597 0.828668275 0.0005 0.828668275"></polygon>
    </defs>
    <g id="Page-1" stroke="none" stroke-width="1" fill="none" fill-rule="evenodd">
        <g id="Artboard">
            <g id="Page-1" transform="translate(1.000000, 1.000000)">
                <g id="Group" stroke-linecap="round" stroke-width="1.82500005" stroke-linejoin="round">
                    <polyline id="Stroke-1" stroke="#1ABC9C" points="22.2702667 36.8151345 22.2702667 17.48768 0.00226666667 0.613661818 0.00226666667 36.8151345"></polyline>
                    <polyline id="Stroke-3" stroke="#546979" points="29.1219333 36.8151345 29.1219333 17.48768 51.3899333 0.613661818 51.3899333 36.8151345"></polyline>
                </g>
                <g id="Group-7" transform="translate(67.000000, 12.000000)">
                    <mask id="mask-2" fill="white">
                        <use xlink:href="#path-1"></use>
                    </mask>
                    <g id="Clip-6"></g>
                    <path d="M72.7625,0.8743 C72.5815,0.8743 72.4235,0.9383 72.2885,1.0653 C72.1605,1.1933 72.0965,1.3513 72.0965,1.5383 L72.0965,16.2233 C72.0965,16.4033 72.1605,16.5613 72.2885,16.6963 C72.4235,16.8233 72.5815,16.8873 72.7625,16.8873 C72.9505,16.8873 73.1085,16.8233 73.2365,16.6963 C73.3725,16.5613 73.4395,16.4033 73.4395,16.2233 L73.4395,9.5673 L77.2115,9.5673 L80.7005,16.6283 C80.8205,16.8763 81.0205,17.0003 81.2985,17.0003 C81.4045,17.0003 81.5015,16.9773 81.5925,16.9323 C81.7575,16.8503 81.8705,16.7223 81.9305,16.5493 C81.9915,16.3773 81.9795,16.2083 81.8975,16.0433 L78.6795,9.5003 C79.8005,9.3273 80.7305,8.8393 81.4685,8.0363 C82.2205,7.2253 82.5975,6.2873 82.5975,5.2213 C82.5975,4.0203 82.1375,2.9953 81.2195,2.1463 C80.2935,1.2983 79.1795,0.8743 77.8775,0.8743 L72.7625,0.8743 Z M80.2935,7.3273 C79.6535,7.9123 78.8745,8.2123 77.9565,8.2273 L73.4395,8.2273 L73.4395,2.2033 L77.8775,2.2033 C78.8105,2.2033 79.6085,2.4993 80.2715,3.0923 C80.9335,3.6783 81.2645,4.3873 81.2645,5.2213 C81.2645,6.0393 80.9415,6.7413 80.2935,7.3273 L80.2935,7.3273 Z M66.0095,17.0003 C66.1985,17.0003 66.3565,16.9323 66.4845,16.7973 C66.6195,16.6693 66.6875,16.5123 66.6875,16.3243 C66.6875,16.1363 66.6195,15.9793 66.4845,15.8513 C66.3565,15.7163 66.1985,15.6483 66.0095,15.6483 L57.7225,15.6483 L57.7225,9.5903 L63.9205,9.5903 C64.1095,9.5903 64.2675,9.5223 64.3955,9.3873 C64.5305,9.2603 64.5985,9.1023 64.5985,8.9143 C64.5985,8.7273 64.5305,8.5693 64.3955,8.4413 C64.2675,8.3063 64.1095,8.2393 63.9205,8.2393 L57.7225,8.2393 L57.7225,2.1803 L66.0095,2.2033 C66.1985,2.2033 66.3565,2.1393 66.4845,2.0113 C66.6195,1.8763 66.6875,1.7153 66.6875,1.5273 C66.6875,1.3473 66.6195,1.1893 66.4845,1.0543 C66.3565,0.9193 66.1985,0.8513 66.0095,0.8513 L57.0445,0.8293 C56.8635,0.8213 56.7055,0.8893 56.5705,1.0323 C56.4345,1.1593 56.3675,1.3173 56.3675,1.5053 L56.3675,16.3243 C56.3675,16.5123 56.4345,16.6693 56.5705,16.7973 C56.6985,16.9323 56.8565,17.0003 57.0445,17.0003 L66.0095,17.0003 Z M41.1345,16.6843 C41.2705,16.5573 41.3385,16.3993 41.3385,16.2113 L41.3385,11.9103 L43.3475,9.7933 L50.0215,16.7973 C50.1565,16.9323 50.3185,17.0003 50.5065,17.0003 C50.6875,17.0003 50.8415,16.9403 50.9695,16.8203 C51.1045,16.6923 51.1765,16.5343 51.1845,16.3473 C51.1845,16.1593 51.1205,16.0013 50.9925,15.8743 L44.2735,8.8243 L50.7665,2.0233 C50.8945,1.8873 50.9545,1.7263 50.9465,1.5383 C50.9465,1.3583 50.8795,1.2043 50.7435,1.0773 C50.6085,0.9493 50.4465,0.8853 50.2585,0.8853 C50.0775,0.8933 49.9235,0.9643 49.7955,1.0993 L41.3385,9.9733 L41.3385,1.4933 C41.3385,1.3133 41.2705,1.1563 41.1345,1.0203 C41.0065,0.8933 40.8485,0.8293 40.6605,0.8293 C40.4795,0.8293 40.3215,0.8933 40.1865,1.0203 C40.0585,1.1563 39.9945,1.3133 39.9945,1.4933 L39.9945,16.2113 C39.9945,16.3993 40.0585,16.5573 40.1865,16.6843 C40.3215,16.8203 40.4795,16.8873 40.6605,16.8873 C40.8485,16.8873 41.0065,16.8203 41.1345,16.6843 L41.1345,16.6843 Z M22.0635,17.0003 C22.3645,17.0003 22.5715,16.8613 22.6845,16.5833 L24.0845,13.2273 L32.3275,13.2273 L33.7275,16.5833 C33.8405,16.8613 34.0475,17.0003 34.3485,17.0003 C34.4385,17.0003 34.5255,16.9813 34.6085,16.9433 C34.7815,16.8763 34.9015,16.7563 34.9695,16.5833 C35.0445,16.4103 35.0445,16.2383 34.9695,16.0653 L33.3995,12.2933 L33.3995,12.2813 L28.8265,1.2793 C28.8115,1.2423 28.7935,1.2013 28.7705,1.1563 C28.7705,1.1633 28.7555,1.1483 28.7255,1.1103 C28.7025,1.0803 28.6875,1.0623 28.6805,1.0543 C28.6725,1.0543 28.6535,1.0393 28.6235,1.0093 L28.5785,0.9753 C28.5035,0.9233 28.4205,0.8893 28.3305,0.8743 L28.2735,0.8743 C28.2365,0.8663 28.2135,0.8633 28.2055,0.8633 C28.1985,0.8633 28.1725,0.8663 28.1265,0.8743 L28.0705,0.8743 C27.9875,0.8893 27.9085,0.9233 27.8335,0.9753 C27.8405,0.9683 27.8255,0.9793 27.7885,1.0093 C27.7585,1.0323 27.7395,1.0473 27.7315,1.0543 C27.7245,1.0623 27.7095,1.0803 27.6865,1.1103 L27.6415,1.1563 C27.6185,1.2013 27.5995,1.2423 27.5845,1.2793 L23.0115,12.2813 L23.0115,12.2933 L21.4425,16.0653 C21.3675,16.2383 21.3675,16.4103 21.4425,16.5833 C21.5105,16.7563 21.6305,16.8763 21.8035,16.9433 C21.8865,16.9813 21.9735,17.0003 22.0635,17.0003 L22.0635,17.0003 Z M24.6375,11.8763 L28.2055,3.2953 L31.7735,11.8763 L24.6375,11.8763 Z M1.3435,3.9713 L7.4075,13.9593 L7.4185,13.9713 L7.4185,13.9823 C7.4335,13.9973 7.4485,14.0163 7.4635,14.0383 C7.4785,14.0533 7.4935,14.0683 7.5085,14.0833 C7.5235,14.0983 7.5385,14.1133 7.5535,14.1283 C7.5765,14.1433 7.5955,14.1583 7.6105,14.1733 C7.6475,14.1963 7.6555,14.2003 7.6325,14.1843 C7.6405,14.1843 7.6445,14.1883 7.6445,14.1963 L7.6665,14.1963 C7.6895,14.2113 7.7115,14.2223 7.7345,14.2303 C7.7495,14.2373 7.7685,14.2453 7.7905,14.2523 C7.8135,14.2603 7.8365,14.2633 7.8585,14.2633 C7.8735,14.2713 7.8925,14.2753 7.9155,14.2753 C7.9375,14.2823 7.9605,14.2863 7.9825,14.2863 C8.0055,14.2863 8.0285,14.2823 8.0505,14.2753 C8.0735,14.2753 8.0925,14.2713 8.1075,14.2633 C8.1295,14.2633 8.1525,14.2603 8.1745,14.2523 C8.1975,14.2453 8.2165,14.2373 8.2315,14.2303 C8.2535,14.2223 8.2765,14.2113 8.2995,14.1963 C8.3295,14.1813 8.3405,14.1773 8.3325,14.1843 C8.3105,14.2003 8.3175,14.1963 8.3555,14.1733 C8.3705,14.1583 8.3895,14.1433 8.4115,14.1283 C8.4275,14.1133 8.4425,14.0983 8.4575,14.0833 L8.5025,14.0383 C8.5175,14.0163 8.5325,13.9973 8.5475,13.9823 L8.5475,13.9713 C8.5545,13.9633 8.5585,13.9593 8.5585,13.9593 L14.6225,3.9713 L14.6225,16.3243 C14.6225,16.5123 14.6865,16.6733 14.8145,16.8083 C14.9495,16.9363 15.1075,17.0003 15.2885,17.0003 C15.4765,17.0003 15.6345,16.9363 15.7625,16.8083 C15.8985,16.6733 15.9655,16.5123 15.9655,16.3243 L15.9655,1.5613 C15.9655,1.2233 15.8005,1.0093 15.4685,0.9193 C15.1455,0.8293 14.8935,0.9303 14.7125,1.2233 L7.9825,12.3153 L1.2535,1.2233 C1.0725,0.9303 0.8205,0.8293 0.4965,0.9193 C0.1655,1.0093 0.0005,1.2233 0.0005,1.5613 L0.0005,16.3243 C0.0005,16.5123 0.0635,16.6733 0.1915,16.8083 C0.3275,16.9363 0.4895,17.0003 0.6775,17.0003 C0.8585,17.0003 1.0165,16.9363 1.1515,16.8083 C1.2795,16.6733 1.3435,16.5123 1.3435,16.3243 L1.3435,3.9713 Z" id="Fill-5" fill="#546979" mask="url(#mask-2)"></path>
                </g>
            </g>
            <g id="Page-1" transform="translate(1.000000, 1.000000)">
                <g id="Group" stroke-linecap="round" stroke-width="1.82500005" stroke-linejoin="round">
                    <polyline id="Stroke-1" stroke="#1ABC9C" points="22.2702667 36.8151345 22.2702667 17.48768 0.00226666667 0.613661818 0.00226666667 36.8151345"></polyline>
                    <polyline id="Stroke-3" stroke="#546979" points="29.1219333 36.8151345 29.1219333 17.48768 51.3899333 0.613661818 51.3899333 36.8151345"></polyline>
                </g>
                <g id="Group-7" transform="translate(67.000000, 12.000000)">
                    <mask id="mask-4" fill="white">
                        <use xlink:href="#path-3"></use>
                    </mask>
                    <g id="Clip-6"></g>
                    <path d="M72.7625,0.8743 C72.5815,0.8743 72.4235,0.9383 72.2885,1.0653 C72.1605,1.1933 72.0965,1.3513 72.0965,1.5383 L72.0965,16.2233 C72.0965,16.4033 72.1605,16.5613 72.2885,16.6963 C72.4235,16.8233 72.5815,16.8873 72.7625,16.8873 C72.9505,16.8873 73.1085,16.8233 73.2365,16.6963 C73.3725,16.5613 73.4395,16.4033 73.4395,16.2233 L73.4395,9.5673 L77.2115,9.5673 L80.7005,16.6283 C80.8205,16.8763 81.0205,17.0003 81.2985,17.0003 C81.4045,17.0003 81.5015,16.9773 81.5925,16.9323 C81.7575,16.8503 81.8705,16.7223 81.9305,16.5493 C81.9915,16.3773 81.9795,16.2083 81.8975,16.0433 L78.6795,9.5003 C79.8005,9.3273 80.7305,8.8393 81.4685,8.0363 C82.2205,7.2253 82.5975,6.2873 82.5975,5.2213 C82.5975,4.0203 82.1375,2.9953 81.2195,2.1463 C80.2935,1.2983 79.1795,0.8743 77.8775,0.8743 L72.7625,0.8743 Z M80.2935,7.3273 C79.6535,7.9123 78.8745,8.2123 77.9565,8.2273 L73.4395,8.2273 L73.4395,2.2033 L77.8775,2.2033 C78.8105,2.2033 79.6085,2.4993 80.2715,3.0923 C80.9335,3.6783 81.2645,4.3873 81.2645,5.2213 C81.2645,6.0393 80.9415,6.7413 80.2935,7.3273 L80.2935,7.3273 Z M66.0095,17.0003 C66.1985,17.0003 66.3565,16.9323 66.4845,16.7973 C66.6195,16.6693 66.6875,16.5123 66.6875,16.3243 C66.6875,16.1363 66.6195,15.9793 66.4845,15.8513 C66.3565,15.7163 66.1985,15.6483 66.0095,15.6483 L57.7225,15.6483 L57.7225,9.5903 L63.9205,9.5903 C64.1095,9.5903 64.2675,9.5223 64.3955,9.3873 C64.5305,9.2603 64.5985,9.1023 64.5985,8.9143 C64.5985,8.7273 64.5305,8.5693 64.3955,8.4413 C64.2675,8.3063 64.1095,8.2393 63.9205,8.2393 L57.7225,8.2393 L57.7225,2.1803 L66.0095,2.2033 C66.1985,2.2033 66.3565,2.1393 66.4845,2.0113 C66.6195,1.8763 66.6875,1.7153 66.6875,1.5273 C66.6875,1.3473 66.6195,1.1893 66.4845,1.0543 C66.3565,0.9193 66.1985,0.8513 66.0095,0.8513 L57.0445,0.8293 C56.8635,0.8213 56.7055,0.8893 56.5705,1.0323 C56.4345,1.1593 56.3675,1.3173 56.3675,1.5053 L56.3675,16.3243 C56.3675,16.5123 56.4345,16.6693 56.5705,16.7973 C56.6985,16.9323 56.8565,17.0003 57.0445,17.0003 L66.0095,17.0003 Z M41.1345,16.6843 C41.2705,16.5573 41.3385,16.3993 41.3385,16.2113 L41.3385,11.9103 L43.3475,9.7933 L50.0215,16.7973 C50.1565,16.9323 50.3185,17.0003 50.5065,17.0003 C50.6875,17.0003 50.8415,16.9403 50.9695,16.8203 C51.1045,16.6923 51.1765,16.5343 51.1845,16.3473 C51.1845,16.1593 51.1205,16.0013 50.9925,15.8743 L44.2735,8.8243 L50.7665,2.0233 C50.8945,1.8873 50.9545,1.7263 50.9465,1.5383 C50.9465,1.3583 50.8795,1.2043 50.7435,1.0773 C50.6085,0.9493 50.4465,0.8853 50.2585,0.8853 C50.0775,0.8933 49.9235,0.9643 49.7955,1.0993 L41.3385,9.9733 L41.3385,1.4933 C41.3385,1.3133 41.2705,1.1563 41.1345,1.0203 C41.0065,0.8933 40.8485,0.8293 40.6605,0.8293 C40.4795,0.8293 40.3215,0.8933 40.1865,1.0203 C40.0585,1.1563 39.9945,1.3133 39.9945,1.4933 L39.9945,16.2113 C39.9945,16.3993 40.0585,16.5573 40.1865,16.6843 C40.3215,16.8203 40.4795,16.8873 40.6605,16.8873 C40.8485,16.8873 41.0065,16.8203 41.1345,16.6843 L41.1345,16.6843 Z M22.0635,17.0003 C22.3645,17.0003 22.5715,16.8613 22.6845,16.5833 L24.0845,13.2273 L32.3275,13.2273 L33.7275,16.5833 C33.8405,16.8613 34.0475,17.0003 34.3485,17.0003 C34.4385,17.0003 34.5255,16.9813 34.6085,16.9433 C34.7815,16.8763 34.9015,16.7563 34.9695,16.5833 C35.0445,16.4103 35.0445,16.2383 34.9695,16.0653 L33.3995,12.2933 L33.3995,12.2813 L28.8265,1.2793 C28.8115,1.2423 28.7935,1.2013 28.7705,1.1563 C28.7705,1.1633 28.7555,1.1483 28.7255,1.1103 C28.7025,1.0803 28.6875,1.0623 28.6805,1.0543 C28.6725,1.0543 28.6535,1.0393 28.6235,1.0093 L28.5785,0.9753 C28.5035,0.9233 28.4205,0.8893 28.3305,0.8743 L28.2735,0.8743 C28.2365,0.8663 28.2135,0.8633 28.2055,0.8633 C28.1985,0.8633 28.1725,0.8663 28.1265,0.8743 L28.0705,0.8743 C27.9875,0.8893 27.9085,0.9233 27.8335,0.9753 C27.8405,0.9683 27.8255,0.9793 27.7885,1.0093 C27.7585,1.0323 27.7395,1.0473 27.7315,1.0543 C27.7245,1.0623 27.7095,1.0803 27.6865,1.1103 L27.6415,1.1563 C27.6185,1.2013 27.5995,1.2423 27.5845,1.2793 L23.0115,12.2813 L23.0115,12.2933 L21.4425,16.0653 C21.3675,16.2383 21.3675,16.4103 21.4425,16.5833 C21.5105,16.7563 21.6305,16.8763 21.8035,16.9433 C21.8865,16.9813 21.9735,17.0003 22.0635,17.0003 L22.0635,17.0003 Z M24.6375,11.8763 L28.2055,3.2953 L31.7735,11.8763 L24.6375,11.8763 Z M1.3435,3.9713 L7.4075,13.9593 L7.4185,13.9713 L7.4185,13.9823 C7.4335,13.9973 7.4485,14.0163 7.4635,14.0383 C7.4785,14.0533 7.4935,14.0683 7.5085,14.0833 C7.5235,14.0983 7.5385,14.1133 7.5535,14.1283 C7.5765,14.1433 7.5955,14.1583 7.6105,14.1733 C7.6475,14.1963 7.6555,14.2003 7.6325,14.1843 C7.6405,14.1843 7.6445,14.1883 7.6445,14.1963 L7.6665,14.1963 C7.6895,14.2113 7.7115,14.2223 7.7345,14.2303 C7.7495,14.2373 7.7685,14.2453 7.7905,14.2523 C7.8135,14.2603 7.8365,14.2633 7.8585,14.2633 C7.8735,14.2713 7.8925,14.2753 7.9155,14.2753 C7.9375,14.2823 7.9605,14.2863 7.9825,14.2863 C8.0055,14.2863 8.0285,14.2823 8.0505,14.2753 C8.0735,14.2753 8.0925,14.2713 8.1075,14.2633 C8.1295,14.2633 8.1525,14.2603 8.1745,14.2523 C8.1975,14.2453 8.2165,14.2373 8.2315,14.2303 C8.2535,14.2223 8.2765,14.2113 8.2995,14.1963 C8.3295,14.1813 8.3405,14.1773 8.3325,14.1843 C8.3105,14.2003 8.3175,14.1963 8.3555,14.1733 C8.3705,14.1583 8.3895,14.1433 8.4115,14.1283 C8.4275,14.1133 8.4425,14.0983 8.4575,14.0833 L8.5025,14.0383 C8.5175,14.0163 8.5325,13.9973 8.5475,13.9823 L8.5475,13.9713 C8.5545,13.9633 8.5585,13.9593 8.5585,13.9593 L14.6225,3.9713 L14.6225,16.3243 C14.6225,16.5123 14.6865,16.6733 14.8145,16.8083 C14.9495,16.9363 15.1075,17.0003 15.2885,17.0003 C15.4765,17.0003 15.6345,16.9363 15.7625,16.8083 C15.8985,16.6733 15.9655,16.5123 15.9655,16.3243 L15.9655,1.5613 C15.9655,1.2233 15.8005,1.0093 15.4685,0.9193 C15.1455,0.8293 14.8935,0.9303 14.7125,1.2233 L7.9825,12.3153 L1.2535,1.2233 C1.0725,0.9303 0.8205,0.8293 0.4965,0.9193 C0.1655,1.0093 0.0005,1.2233 0.0005,1.5613 L0.0005,16.3243 C0.0005,16.5123 0.0635,16.6733 0.1915,16.8083 C0.3275,16.9363 0.4895,17.0003 0.6775,17.0003 C0.8585,17.0003 1.0165,16.9363 1.1515,16.8083 C1.2795,16.6733 1.3435,16.5123 1.3435,16.3243 L1.3435,3.9713 Z" id="Fill-5" fill="#546979" mask="url(#mask-4)"></path>
                </g>
            </g>
        </g>
    </g>
</svg>

<svg width="151" height="39" xmlns="http://www.w3.org/2000/svg" xmlns:xlink="http://www.w3.org/1999/xlink"><defs><path id="a" d="M0 17h82.597V.829H.001z"/><path id="c" d="M0 17h82.597V.829H.001z"/></defs><g fill="none" fill-rule="evenodd"><g stroke-linecap="round" stroke-width="1.825" stroke-linejoin="round"><path stroke="#1ABC9C" d="M23.27 37.815V18.488L1.002 1.614v36.201"/><path stroke="#546979" d="M30.122 37.815V18.488L52.39 1.614v36.201"/></g><g transform="translate(68 13)"><mask id="b" fill="#fff"><use xlink:href="#a"/></mask><path d="M72.763.874a.67.67 0 0 0-.475.191.643.643 0 0 0-.191.473v14.685c0 .18.064.338.192.473a.67.67 0 0 0 .474.191.647.647 0 0 0 .474-.19.645.645 0 0 0 .203-.474V9.567h3.772l3.489 7.061c.12.248.32.372.598.372a.652.652 0 0 0 .293-.068.652.652 0 0 0 .338-.383.626.626 0 0 0-.033-.506L78.68 9.5c1.121-.173 2.052-.66 2.79-1.464.752-.81 1.129-1.749 1.129-2.815 0-1.2-.46-2.226-1.379-3.075-.925-.848-2.04-1.272-3.341-1.272h-5.115zm7.53 6.453c-.64.585-1.419.885-2.337.9H73.44V2.203h4.439c.933 0 1.73.296 2.394.89.661.585.992 1.294.992 2.128 0 .818-.322 1.52-.97 2.106zM66.01 17a.628.628 0 0 0 .475-.203.626.626 0 0 0 .204-.473.626.626 0 0 0-.204-.473.628.628 0 0 0-.474-.203h-8.288V9.59h6.198a.628.628 0 0 0 .475-.203.624.624 0 0 0 .204-.473.627.627 0 0 0-.204-.473.627.627 0 0 0-.474-.202h-6.199V2.18l8.288.023a.645.645 0 0 0 .474-.192.66.66 0 0 0 .204-.484.65.65 0 0 0-.204-.473.628.628 0 0 0-.474-.203L57.044.83a.594.594 0 0 0-.473.203.62.62 0 0 0-.203.473v14.82c0 .187.066.344.203.472a.628.628 0 0 0 .474.203h8.965zm-24.874-.316a.621.621 0 0 0 .204-.473v-4.3l2.008-2.118 6.675 7.004a.663.663 0 0 0 .485.203.65.65 0 0 0 .462-.18.669.669 0 0 0 .215-.473.64.64 0 0 0-.191-.473l-6.72-7.05 6.493-6.8a.64.64 0 0 0 .18-.486.607.607 0 0 0-.203-.46.68.68 0 0 0-.485-.193.656.656 0 0 0-.463.214L41.34 9.973v-8.48a.648.648 0 0 0-.204-.473.647.647 0 0 0-.474-.19.67.67 0 0 0-.474.19.668.668 0 0 0-.192.473v14.718a.64.64 0 0 0 .192.473.646.646 0 0 0 .474.203.624.624 0 0 0 .474-.203zM22.064 17a.619.619 0 0 0 .62-.417l1.4-3.356h8.244l1.4 3.356c.112.278.32.417.62.417.09 0 .178-.019.26-.057a.609.609 0 0 0 .361-.36.624.624 0 0 0 0-.518l-1.57-3.772v-.012L28.827 1.28a1.53 1.53 0 0 0-.056-.123c0 .007-.014-.008-.044-.046a1.21 1.21 0 0 0-.046-.056c-.008 0-.026-.015-.056-.045l-.046-.034a.606.606 0 0 0-.247-.1h-.058a.434.434 0 0 0-.067-.012.718.718 0 0 0-.08.011h-.056a.602.602 0 0 0-.282.135.814.814 0 0 0-.056.045 1.21 1.21 0 0 0-.046.056l-.044.046a1.568 1.568 0 0 0-.058.123l-4.572 11.002v.012l-1.57 3.772a.624.624 0 0 0 0 .518.609.609 0 0 0 .361.36c.084.038.17.057.26.057zm2.573-5.124l3.569-8.58 3.567 8.58h-7.136zM1.343 3.971l6.064 9.988.011.012v.011c.016.015.03.034.045.056l.045.045.045.045c.024.015.043.03.058.045.037.023.045.027.022.011.008 0 .011.004.011.012h.022a.309.309 0 0 0 .068.034.469.469 0 0 0 .056.022.206.206 0 0 0 .069.011.12.12 0 0 0 .056.012.224.224 0 0 0 .135 0 .12.12 0 0 0 .057-.012.196.196 0 0 0 .068-.01.429.429 0 0 0 .056-.023.332.332 0 0 0 .069-.034c.03-.015.04-.019.032-.012-.022.016-.014.012.023-.01a.392.392 0 0 1 .056-.046.658.658 0 0 0 .046-.045l.045-.045a.392.392 0 0 1 .045-.056v-.01l.011-.013 6.065-9.988v12.353c0 .188.064.35.192.484a.667.667 0 0 0 .474.192.644.644 0 0 0 .473-.192.657.657 0 0 0 .204-.484V1.561c0-.338-.165-.552-.497-.642-.323-.09-.575.011-.756.304l-6.73 11.092-6.73-11.092C1.073.93.821.83.497.92.164 1.01 0 1.223 0 1.561v14.763c0 .188.063.35.19.484A.685.685 0 0 0 .677 17a.667.667 0 0 0 .474-.192.678.678 0 0 0 .192-.484V3.971z" fill="#546979" mask="url(#b)"/></g><g stroke-linecap="round" stroke-width="1.825" stroke-linejoin="round"><path stroke="#1ABC9C" d="M23.27 37.815V18.488L1.002 1.614v36.201"/><path stroke="#546979" d="M30.122 37.815V18.488L52.39 1.614v36.201"/></g><g transform="translate(68 13)"><mask id="d" fill="#fff"><use xlink:href="#c"/></mask><path d="M72.763.874a.67.67 0 0 0-.475.191.643.643 0 0 0-.191.473v14.685c0 .18.064.338.192.473a.67.67 0 0 0 .474.191.647.647 0 0 0 .474-.19.645.645 0 0 0 .203-.474V9.567h3.772l3.489 7.061c.12.248.32.372.598.372a.652.652 0 0 0 .293-.068.652.652 0 0 0 .338-.383.626.626 0 0 0-.033-.506L78.68 9.5c1.121-.173 2.052-.66 2.79-1.464.752-.81 1.129-1.749 1.129-2.815 0-1.2-.46-2.226-1.379-3.075-.925-.848-2.04-1.272-3.341-1.272h-5.115zm7.53 6.453c-.64.585-1.419.885-2.337.9H73.44V2.203h4.439c.933 0 1.73.296 2.394.89.661.585.992 1.294.992 2.128 0 .818-.322 1.52-.97 2.106zM66.01 17a.628.628 0 0 0 .475-.203.626.626 0 0 0 .204-.473.626.626 0 0 0-.204-.473.628.628 0 0 0-.474-.203h-8.288V9.59h6.198a.628.628 0 0 0 .475-.203.624.624 0 0 0 .204-.473.627.627 0 0 0-.204-.473.627.627 0 0 0-.474-.202h-6.199V2.18l8.288.023a.645.645 0 0 0 .474-.192.66.66 0 0 0 .204-.484.65.65 0 0 0-.204-.473.628.628 0 0 0-.474-.203L57.044.83a.594.594 0 0 0-.473.203.62.62 0 0 0-.203.473v14.82c0 .187.066.344.203.472a.628.628 0 0 0 .474.203h8.965zm-24.874-.316a.621.621 0 0 0 .204-.473v-4.3l2.008-2.118 6.675 7.004a.663.663 0 0 0 .485.203.65.65 0 0 0 .462-.18.669.669 0 0 0 .215-.473.64.64 0 0 0-.191-.473l-6.72-7.05 6.493-6.8a.64.64 0 0 0 .18-.486.607.607 0 0 0-.203-.46.68.68 0 0 0-.485-.193.656.656 0 0 0-.463.214L41.34 9.973v-8.48a.648.648 0 0 0-.204-.473.647.647 0 0 0-.474-.19.67.67 0 0 0-.474.19.668.668 0 0 0-.192.473v14.718a.64.64 0 0 0 .192.473.646.646 0 0 0 .474.203.624.624 0 0 0 .474-.203zM22.064 17a.619.619 0 0 0 .62-.417l1.4-3.356h8.244l1.4 3.356c.112.278.32.417.62.417.09 0 .178-.019.26-.057a.609.609 0 0 0 .361-.36.624.624 0 0 0 0-.518l-1.57-3.772v-.012L28.827 1.28a1.53 1.53 0 0 0-.056-.123c0 .007-.014-.008-.044-.046a1.21 1.21 0 0 0-.046-.056c-.008 0-.026-.015-.056-.045l-.046-.034a.606.606 0 0 0-.247-.1h-.058a.434.434 0 0 0-.067-.012.718.718 0 0 0-.08.011h-.056a.602.602 0 0 0-.282.135.814.814 0 0 0-.056.045 1.21 1.21 0 0 0-.046.056l-.044.046a1.568 1.568 0 0 0-.058.123l-4.572 11.002v.012l-1.57 3.772a.624.624 0 0 0 0 .518.609.609 0 0 0 .361.36c.084.038.17.057.26.057zm2.573-5.124l3.569-8.58 3.567 8.58h-7.136zM1.343 3.971l6.064 9.988.011.012v.011c.016.015.03.034.045.056l.045.045.045.045c.024.015.043.03.058.045.037.023.045.027.022.011.008 0 .011.004.011.012h.022a.309.309 0 0 0 .068.034.469.469 0 0 0 .056.022.206.206 0 0 0 .069.011.12.12 0 0 0 .056.012.224.224 0 0 0 .135 0 .12.12 0 0 0 .057-.012.196.196 0 0 0 .068-.01.429.429 0 0 0 .056-.023.332.332 0 0 0 .069-.034c.03-.015.04-.019.032-.012-.022.016-.014.012.023-.01a.392.392 0 0 1 .056-.046.658.658 0 0 0 .046-.045l.045-.045a.392.392 0 0 1 .045-.056v-.01l.011-.013 6.065-9.988v12.353c0 .188.064.35.192.484a.667.667 0 0 0 .474.192.644.644 0 0 0 .473-.192.657.657 0 0 0 .204-.484V1.561c0-.338-.165-.552-.497-.642-.323-.09-.575.011-.756.304l-6.73 11.092-6.73-11.092C1.073.93.821.83.497.92.164 1.01 0 1.223 0 1.561v14.763c0 .188.063.35.19.484A.685.685 0 0 0 .677 17a.667.667 0 0 0 .474-.192.678.678 0 0 0 .192-.484V3.971z" fill="#546979" mask="url(#d)"/></g></g></svg>
